X: 22183
T: La Belle Inconnue
R: polka
M: 2/4
K: Edorian
|:e>f gf|ed cB/c/|dc BG|F/G/F/E/ B2|
e>f gf|ed cB/c/|dc BG|FG/F/ E2:|
|:B>G FE|B>G FE|B>G FE|B/c/d/c/ BA|
B>G FE|B>G FE|B>G FG/F/|E/F/G/F/ E2:|

